svgs/sharp-light/square-quarters.svg

<svg xmlns="http://www.w3.org/2000/svg" viewBox="0 0 448 512"><!--! Font Awesome Pro 6.6.0 by @fontawesome - https://fontawesome.com License - https://fontawesome.com/license (Commercial License) Copyright 2024 Fonticons, Inc. --><path d="M393.4 64L54.6 64 224 233.4 393.4 64zM32 86.6l0 338.7L201.4 256 32 86.6zM54.6 448l338.7 0L224 278.6 54.6 448zM416 425.4l0-338.7L246.6 256 416 425.4zM0 32l32 0 384 0 32 0 0 32 0 384 0 32-32 0L32 480 0 480l0-32L0 64 0 32z"/></svg>

<svg xmlns="http://www.w3.org/2000/svg" viewBox="0 0 448 512"><!--! Font Awesome Pro 6.4.2 by @fontawesome - https://fontawesome.com License - https://fontawesome.com/license (Commercial License) Copyright 2023 Fonticons, Inc. --><path d="M393.4 64H54.6L224 233.4 393.4 64zM32 86.6V425.4L201.4 256 32 86.6zM54.6 448H393.4L224 278.6 54.6 448zM416 425.4V86.6L246.6 256 416 425.4zM0 32H32 416h32V64 448v32H416 32 0V448 64 32z"/></svg>
